dist/img/svg/ic_wa.svg

<svg width="16" height="17" viewBox="0 0 16 17"  xmlns="http://www.w3.org/2000/svg">
<path d="M9.71875 9.38542C9.98958 9.04514 10.1701 8.875 10.2604 8.875C10.3507 8.875 10.6875 9.02778 11.2708 9.33333C11.8611 9.63889 12.1736 9.82292 12.2083 9.88542C12.2222 9.92014 12.2292 9.97222 12.2292 10.0417C12.2292 10.2708 12.1701 10.5347 12.0521 10.8333C11.941 11.1042 11.6944 11.3333 11.3125 11.5208C10.9306 11.7014 10.5764 11.7917 10.25 11.7917C9.85417 11.7917 9.19444 11.5764 8.27083 11.1458C7.59028 10.8333 7 10.4236 6.5 9.91667C6 9.40972 5.48611 8.76736 4.95833 7.98958C4.45833 7.24653 4.21181 6.57292 4.21875 5.96875V5.88542C4.23958 5.25347 4.49653 4.70486 4.98958 4.23958C5.15625 4.08681 5.33681 4.01042 5.53125 4.01042C5.57292 4.01042 5.63542 4.01736 5.71875 4.03125C5.80208 4.03819 5.86806 4.04167 5.91667 4.04167C6.04861 4.04167 6.13889 4.06597 6.1875 4.11458C6.24306 4.15625 6.29861 4.25 6.35417 4.39583C6.40972 4.53472 6.52431 4.84028 6.69792 5.3125C6.87153 5.78472 6.95833 6.04514 6.95833 6.09375C6.95833 6.23958 6.8368 6.44097 6.59375 6.69792C6.35764 6.94792 6.23958 7.10764 6.23958 7.17708C6.23958 7.22569 6.25694 7.27778 6.29167 7.33333C6.52778 7.84028 6.88194 8.31597 7.35417 8.76042C7.74306 9.12847 8.26736 9.47917 8.92708 9.8125C9.01042 9.86111 9.08681 9.88542 9.15625 9.88542C9.26042 9.88542 9.44792 9.71875 9.71875 9.38542ZM8.14583 14.3958C9.02778 14.3958 9.87153 14.2222 10.6771 13.875C11.4896 13.5278 12.1875 13.0625 12.7708 12.4792C13.3542 11.8958 13.8194 11.2014 14.1667 10.3958C14.5139 9.58333 14.6875 8.73611 14.6875 7.85417C14.6875 6.97222 14.5139 6.12847 14.1667 5.32292C13.8194 4.51042 13.3542 3.8125 12.7708 3.22917C12.1875 2.64583 11.4896 2.18056 10.6771 1.83333C9.87153 1.48611 9.02778 1.3125 8.14583 1.3125C7.26389 1.3125 6.41667 1.48611 5.60417 1.83333C4.79861 2.18056 4.10417 2.64583 3.52083 3.22917C2.9375 3.8125 2.47222 4.51042 2.125 5.32292C1.77778 6.12847 1.60417 6.97222 1.60417 7.85417C1.60417 9.26389 2.02083 10.5417 2.85417 11.6875L2.03125 14.1146L4.55208 13.3125C5.64931 14.0347 6.84722 14.3958 8.14583 14.3958ZM5.09375 0.625001C6.06597 0.208334 7.08333 0 8.14583 0C9.20833 0 10.2222 0.208334 11.1875 0.625001C12.1597 1.04167 12.9965 1.6007 13.6979 2.30208C14.3993 3.00347 14.9583 3.84028 15.375 4.8125C15.7917 5.77778 16 6.79167 16 7.85417C16 8.91667 15.7917 9.93403 15.375 10.9062C14.9583 11.8715 14.3993 12.7049 13.6979 13.4062C12.9965 14.1076 12.1597 14.6667 11.1875 15.0833C10.2222 15.5 9.20833 15.7083 8.14583 15.7083C6.79167 15.7083 5.52431 15.3819 4.34375 14.7292L0 16.125L1.41667 11.9062C0.666667 10.6701 0.291667 9.31944 0.291667 7.85417C0.291667 6.79167 0.5 5.77778 0.916667 4.8125C1.33333 3.84028 1.89236 3.00347 2.59375 2.30208C3.29514 1.6007 4.12847 1.04167 5.09375 0.625001Z" />
</svg>

<svg width="16" height="17" viewBox="0 0 16 17" xmlns="http://www.w3.org/2000/svg"><path d="M9.719 9.385c.27-.34.451-.51.541-.51.09 0 .428.153 1.01.458.591.306.904.49.938.552a.444.444 0 01.021.157c0 .229-.059.493-.177.791-.111.271-.358.5-.74.688-.381.18-.736.27-1.062.27-.396 0-1.056-.215-1.98-.645a5.945 5.945 0 01-1.77-1.23C6 9.41 5.486 8.768 4.958 7.99c-.5-.743-.746-1.417-.74-2.021v-.084c.022-.632.279-1.18.772-1.645a.788.788 0 01.541-.23c.042 0 .104.007.188.021.083.007.15.01.198.01.132 0 .222.025.27.074.056.041.112.135.167.28.056.14.17.445.344.918.174.472.26.732.26.78 0 .147-.121.348-.364.605-.236.25-.354.41-.354.48 0 .048.017.1.052.155.236.507.59.983 1.062 1.427.39.368.913.72 1.573 1.053.083.048.16.072.23.072.103 0 .29-.166.562-.5zm-1.573 5.01a6.33 6.33 0 002.531-.52 6.581 6.581 0 002.094-1.396 6.613 6.613 0 001.396-2.083 6.41 6.41 0 00.52-2.542 6.33 6.33 0 00-.52-2.531 6.582 6.582 0 00-1.396-2.094 6.581 6.581 0 00-2.094-1.396 6.329 6.329 0 00-2.531-.52c-.882 0-1.73.173-2.542.52-.805.348-1.5.813-2.083 1.396a6.582 6.582 0 00-1.396 2.094 6.329 6.329 0 00-.52 2.531c0 1.41.416 2.688 1.25 3.833l-.824 2.428 2.521-.803a6.406 6.406 0 003.594 1.084zM5.094.626A7.669 7.669 0 018.146 0c1.062 0 2.076.208 3.041.625a7.918 7.918 0 012.51 1.677 7.918 7.918 0 011.678 2.51c.417.966.625 1.98.625 3.042a7.66 7.66 0 01-.625 3.052 7.947 7.947 0 01-1.677 2.5 7.916 7.916 0 01-2.51 1.677 7.594 7.594 0 01-3.042.625 7.735 7.735 0 01-3.802-.979L0 16.125l1.417-4.219A7.666 7.666 0 01.292 7.854c0-1.062.208-2.076.625-3.042a7.917 7.917 0 011.677-2.51 7.948 7.948 0 012.5-1.677z"/></svg>
